X:329
T:English Breakfast Tea
C:Colin Hume, 1998
L:1/4
M:2/2
R:Reel
S:Colin Hume's website,  colinhume.com  - chords can also be printed below the stave.
Q:1/2=102
%%MIDI chordname dim 0 3 6 9
%%MIDI ratio 3 1
K:D
P:A
|: A/G/ | "D"FA Dd | "A"c>d ed/c/ | "G"BG "Em"ed | "A"c>d eA/G/ | "D"FA "A7"Ec | "D"d3 :|
K:Dm
P:B
|: A | "Dm"dA Ad | "F"cA AG/A/ | "Bb"BF FB | "Dm"AF FE/F/ | "C"GC FE | "D5"D3 :|
K:D
P:C
|: d/e/ | "D"f2 ed | "G"B>c dB | "D"Ad AF | "A"E3D/E/ | "D"F2 "D9"GA | "G"B>c "G#dim"dB | "D/A"Af "A7"e>d | "D"d3 :|

